X: 30182
T: Old Favourite, The
R: jig
M: 6/8
K: Gmajor
|:B3 BAB|dBA G2B|ded d2 B|ded B2A|
B2B BAB|dBA G2B|ded cBA|1 G3 GAA:|2 G3 GBd||
g3 f3|ege d2B|ded d2 B|ded B2d|g3 f3|
ege d2B|1 dge dBA|G3 GBd:|2 dge dge|dge dBA||

